**kern	**silbe
*ICvox	*
=1	=1
*G:	*
*M4/4	*
*clefG2	*
4r	.
8d	There's
8d	a
8d	wren
8c	in
8B	a
8c	wi-
=2	=2
8B	-llow
4.d	wood
2r	.
=3	=3
4r	.
4d	Flies
8d	so
4e	high
8d	and
=4	=4
4e	sings
8d	so
16B	good
16A	_
4G	_
8B	And
8B	he
=5	=5
4B	brings
8A	to
[8A	you
4A]	_
4r	.
=6	=6
2r	.
8r	.
8B	what
8d	he
[8e	sings
=7	=7
8e]	_
[4.d	_
4d]	_
8d	to
[8B	you
=8	=8
4.B]	_
4A	_
8G	_
4r	.
=9	=9
4r	.
8d	Like
8d	my
8d	bro-
8c	-ther
8B	the
8c	wren
=10	=10
8B	and
4.d	I
2r	.
=11	=11
4r	.
8d	Well,
8d	he
8d	told
8d	me
4r	.
=12	=12
8e	if
4g	I
[8b	try,
8b]	_
8a	I
8g	could
[8e	fly
=13	=13
8e]	_
[4.d	_
4d]	_
8d	for
[8A	you
=14	=14
8A]	_
8r	.
8r	.
8G	And
8B	I
8d	wan-
8B	-na
[8e	try
=15	=15
2e]	_
8r	.
4d	for
[8B	you
=16	=16
2.B]	_
4G	'cause
=17	=17
4r	.
[2.d	I
=18	=18
4d]	_
8c	wan-
8B	-na
8c	sing
4d	you
8B	a
=19	=19
[2B	love
8B]	_
4.A	song
=20	=20
2r	.
8r	.
8D	I
8A	wan-
8B	-na
=21	=21
8c	rock
8B	you
8c	in
8B	my
[2d	arms
=22	=22
4.d]	_
[8B	all
4B]	_
4A	night
=23	=23
4B	long
4r	.
2r	.
=24	=24
1r	.
=25	=25
4r	.
[2.d	I
=26	=26
4d]	_
8c	wan-
8B	-na
8c	get
4.d	to
=27	=27
[2B	know
8B]	_
4.A	you
=28	=28
2r	.
8r	.
8D	I
8A	wan-
8B	-na
=29	=29
8c	show
4.d	you
4r	.
8d	the
[8e	peace-
=30	=30
8e]	_
4d	-ful
8B	fee-
8A	-lin'
8G	of
8B	my
8r	.
=31	=31
4.A	home
[8G	_
8G]	_
8r	.
4r	.
=32	=32
1r	.
=33	=33
4r	.
8d	Sum-
8d	-mer
8d	thun-
8c	-der
8B	on
[8c	moon-
=34	=34
8c]	_
4B	-bright
4.d	days
4r	.
=35	=35
4r	.
8d	Nort-
4d	-hern
4e	Lights
[8g	and
=36	=36
8g]	_
4e	skies
8B	a-
4G	-blaze
8B	And
[8B	I
=37	=37
8B]	_
4B	bring
8A	to
4A	you
4r	.
=38	=38
2r	.
8B	lo-
8d	-ver,
8d	when
8B	I
=39	=39
8r	.
4e	sing
[8B	_
4B]	_
8d	to
[8A	you
=40	=40
4A]	_
4r	.
2r	.
=41	=41
4r	.
8d	Sil-
8d	-ver
8d	wings
8c	in
8B	a
[8c	fie-
=42	=42
8c]	_
4B	-ry
4.d	sky
4r	.
=43	=43
4r	.
8d	Show
8d	the
4d	trail
8e	of
[8g	my
=44	=44
8g]	_
4b	love
8a	and
4g	I
8g	wan-
[8g	-na
=45	=45
8g]	_
4e	sing
[8d	_
4d]	_
8d	to
[8A	you
=46	=46
4A]	_
4r	.
8B	love
8d	is
8d	what
8B	I
=47	=47
8r	.
4e	bring
[8d	_
4d]	_
8d	to
[8A	you
=48	=48
4A]	_
8r	.
8B	_
8d	I
8d	wan-
8B	-na
[8e	sing
=49	=49
4.e]	_
8d	to
8e	you
8g	_
4e	_
=50	=50
2d	_
4r	.
4e	Oh
=51	=51
[1d	I
=52	=52
4d]	_
8c	wan-
8B	-na
8c	sing
4d	you
8B	a
=53	=53
[2B	love
8B]	_
4.A	song
=54	=54
2r	.
8r	.
8D	I
8A	wan-
8B	-na
=55	=55
8c	rock
8B	you
8c	in
8B	my
[2d	arms
=56	=56
4.d]	_
[8B	all
4B]	_
4A	night
=57	=57
4B	long
4r	.
2r	.
=58	=58
1r	.
=59	=59
4r	.
[2.d	I
=60	=60
4d]	_
8c	wan-
8B	-na
8c	get
4.d	to
=61	=61
[2B	know
8B]	_
4.A	you
=62	=62
2r	.
8r	.
8D	I
8A	wan-
8B	-na
=63	=63
8c	show
4.d	you
4r	.
8d	the
[8e	peace-
=64	=64
8e]	_
4d	-ful
8B	fee-
8A	-lin'
8G	of
8B	my
8r	.
=65	=65
4.A	home
[8G	_
8G]	_
8r	.
4r	.
=66	=66
1r	.
=67	=67
1r	.
=68	=68
1r	.
=69	=69
1r	.
=70	=70
1r	.
*-	*-
!!!ENC: Nathaniel Condit-Schultz